X:113
T:Green Gates (reel), The 
B:CRE2.178 (GeataÃÂÃÂÃÂÃÂ­ Glasuaine)
F:file ID: cre.2/113green_g
R:reel
M:C
Q:180
K:G
D|GBdf (3gfe dB|GBdf (3gfe d2|eAcA eAA2|(3Bcd ef gedB|
GBdf (3gfe dB|GBdf (3gfe dB|cdef (3gfe fd|BcAF G3:|
|:B|dfg2 bfg2|dgfa (3gfe d2|eAcA eAA2|(3Bcd ef gedB|
dfg2 bfg2|dgfa (3gfe dB|cdef (3gfe fd|BcAF G3:|


%%%

